www/assets/icons/select_all.svg

<svg xmlns="http://www.w3.org/2000/svg" width="24" height="24" viewBox="0 0 24 24" fill='currentColor'><path d="M3 5h2V3c-1.1 0-2 .9-2 2m0 8h2v-2H3zm4 8h2v-2H7zM3 9h2V7H3zm10-6h-2v2h2zm6 0v2h2c0-1.1-.9-2-2-2M5 21v-2H3c0 1.1.9 2 2 2m-2-4h2v-2H3zM9 3H7v2h2zm2 18h2v-2h-2zm8-8h2v-2h-2zm0 8c1.1 0 2-.9 2-2h-2zm0-12h2V7h-2zm0 8h2v-2h-2zm-4 4h2v-2h-2zm0-16h2V3h-2zM7 17h10V7H7zm2-8h6v6H9z"/></svg>

<svg width="24" height="24" viewBox="0 0 24 24" xmlns="http://www.w3.org/2000/svg" fill='currentColor'><path d="M3 5H5V3C3.9 3 3 3.9 3 5ZM3 13H5V11H3V13ZM7 21H9V19H7V21ZM3 9H5V7H3V9ZM13 3H11V5H13V3ZM19 3V5H21C21 3.9 20.1 3 19 3ZM5 21V19H3C3 20.1 3.9 21 5 21ZM3 17H5V15H3V17ZM9 3H7V5H9V3ZM11 21H13V19H11V21ZM19 13H21V11H19V13ZM19 21C20.1 21 21 20.1 21 19H19V21ZM19 9H21V7H19V9ZM19 17H21V15H19V17ZM15 21H17V19H15V21ZM15 5H17V3H15V5ZM7 17H17V7H7V17ZM9 9H15V15H9V9Z"/></svg>
